X:83
T: WER REIT'T SO SPAET DURCH NACHT UND WIND
N: B0113
O: Europa, Mitteleuropa, Deutschland
R: Ballade, Romanze
M: 6/8
L: 1/16
K: A
C2 | E4C2E4C2 | BA2GA2B2z2
A2 | G4G2G3AB2 | c4A2A2z2
E2 | GF2EF2AG2FG2 | A3GA2B2z2
E2 | E3FE2F3FE2 | F3BG2A2z2

